public/img/logo.svg

<?xml version="1.0" encoding="UTF-8" standalone="no"?>
<svg width="192px" height="40px" viewBox="0 0 192 40" version="1.1" xmlns="http://www.w3.org/2000/svg" xmlns:xlink="http://www.w3.org/1999/xlink">
    <!-- Generator: Sketch 39.1 (31720) - http://www.bohemiancoding.com/sketch -->
    <title>Logo</title>
    <desc>Created with Sketch.</desc>
    <defs>
        <path d="M8,20 C8,26.627417 13.372583,32 20,32 C26.627417,32 32,26.627417 32,20 C32,13.372583 26.627417,8 20,8" id="path-1"></path>
        <mask id="mask-2" maskContentUnits="userSpaceOnUse" maskUnits="objectBoundingBox" x="0" y="0" width="24" height="24" fill="white">
            <use xlink:href="#path-1"></use>
        </mask>
        <path d="M27,20 C27,16.1340068 23.8659932,13 20,13 C16.1340068,13 13,16.1340068 13,20 C13,23.8659932 16.1340068,27 20,27" id="path-3"></path>
        <mask id="mask-4" maskContentUnits="userSpaceOnUse" maskUnits="objectBoundingBox" x="0" y="0" width="14" height="14" fill="white">
            <use xlink:href="#path-3"></use>
        </mask>
    </defs>
    <g id="Elements" stroke="none" stroke-width="1" fill="none" fill-rule="evenodd">
        <g id="Logo">
            <use id="Outer" stroke="#2196F3" mask="url(#mask-2)" stroke-width="4" xlink:href="#path-1"></use>
            <use id="Inner" stroke="#2196F3" mask="url(#mask-4)" stroke-width="4" xlink:href="#path-3"></use>
            <path d="M44.48,15.28 C44.0399978,15.5600014 43.82,15.9833305 43.82,16.55 C43.82,17.1166695 44.0399978,17.5499985 44.48,17.85 C44.9200022,18.1500015 45.8566595,18.4733316 47.29,18.82 C48.7233405,19.1666684 49.8033297,19.6533302 50.53,20.28 C51.2566703,20.9066698 51.62,21.8299939 51.62,23.05 C51.62,24.2700061 51.1600046,25.2599962 50.24,26.02 C49.3199954,26.7800038 48.1133408,27.16 46.62,27.16 C44.4333224,27.16 42.4933418,26.4066742 40.8,24.9 L42.28,23.12 C43.6933404,24.3466728 45.1599924,24.96 46.68,24.96 C47.4400038,24.96 48.0433311,24.7966683 48.49,24.47 C48.9366689,24.1433317 49.16,23.7100027 49.16,23.17 C49.16,22.6299973 48.9500021,22.2100015 48.53,21.91 C48.1099979,21.6099985 47.3866718,21.3366679 46.36,21.09 C45.3333282,20.8433321 44.553336,20.6166677 44.02,20.41 C43.486664,20.2033323 43.0133354,19.933335 42.6,19.6 C41.7733292,18.9733302 41.36,18.0133398 41.36,16.72 C41.36,15.4266602 41.8299953,14.4300035 42.77,13.73 C43.7100047,13.0299965 44.8733264,12.68 46.26,12.68 C47.1533378,12.68 48.0399956,12.8266652 48.92,13.12 C49.8000044,13.4133348 50.5599968,13.826664 51.2,14.36 L49.94,16.14 C49.5266646,15.7666648 48.9666702,15.4600012 48.26,15.22 C47.5533298,14.9799988 46.8566701,14.86 46.17,14.86 C45.4833299,14.86 44.9200022,14.9999986 44.48,15.28 L44.48,15.28 Z M64.27,22.66 L55.93,22.66 C55.9833336,23.4333372 56.3366634,24.0566643 56.99,24.53 C57.6433366,25.0033357 58.3899958,25.24 59.23,25.24 C60.56334,25.24 61.5766632,24.8200042 62.27,23.98 L63.55,25.38 C62.4033276,26.5666726 60.9100092,27.16 59.07,27.16 C57.5766592,27.16 56.3066719,26.6633383 55.26,25.67 C54.2133281,24.6766617 53.69,23.3433417 53.69,21.67 C53.69,19.9966583 54.223328,18.6666716 55.29,17.68 C56.356672,16.6933284 57.6133261,16.2 59.06,16.2 C60.5066739,16.2 61.7366616,16.6366623 62.75,17.51 C63.7633384,18.3833377 64.27,19.586659 64.27,21.12 L64.27,22.66 Z M55.93,20.9 L62.03,20.9 C62.03,20.0066622 61.7500028,19.3200024 61.19,18.84 C60.6299972,18.3599976 59.9400041,18.12 59.12,18.12 C58.2999959,18.12 57.5633366,18.3699975 56.91,18.87 C56.2566634,19.3700025 55.93,20.0466624 55.93,20.9 L55.93,20.9 Z M69.12,21.24 L69.12,27 L66.88,27 L66.88,16.36 L69.12,16.36 L69.12,18.3 C69.4800018,17.6466634 69.9766635,17.1333352 70.61,16.76 C71.2433365,16.3866648 71.926663,16.2 72.66,16.2 C73.860006,16.2 74.8299963,16.566663 75.57,17.3 C76.3100037,18.033337 76.68,19.0933264 76.68,20.48 L76.68,27 L74.44,27 L74.44,21.16 C74.44,19.1999902 73.6266748,18.22 72,18.22 C71.2266628,18.22 70.5533362,18.4766641 69.98,18.99 C69.4066638,19.5033359 69.12,20.2533284 69.12,21.24 L69.12,21.24 Z M86.43,26.25 C85.696663,26.8566697 84.7566724,27.16 83.61,27.16 C82.8366628,27.16 82.0333375,27.0200014 81.2,26.74 C80.3666625,26.4599986 79.6300032,26.0666692 78.99,25.56 L80.07,23.82 C81.3100062,24.753338 82.5099942,25.22 83.67,25.22 C84.1766692,25.22 84.5766652,25.1033345 84.87,24.87 C85.1633348,24.6366655 85.31,24.3400018 85.31,23.98 C85.31,23.446664 84.6033404,22.9666688 83.19,22.54 C83.0833328,22.4999998 83.0033336,22.4733334 82.95,22.46 C80.7366556,21.859997 79.63,20.860007 79.63,19.46 C79.63,18.4733284 80.0133295,17.6833363 80.78,17.09 C81.5466705,16.4966637 82.5433272,16.2 83.77,16.2 C84.9966728,16.2 86.1566612,16.5599964 87.25,17.28 L86.41,18.94 C85.543329,18.3666638 84.6033384,18.08 83.59,18.08 C83.056664,18.08 82.623335,18.1766657 82.29,18.37 C81.956665,18.5633343 81.79,18.8533314 81.79,19.24 C81.79,19.5866684 81.9633316,19.8399992 82.31,20 C82.5500012,20.1200006 82.8866645,20.2333328 83.32,20.34 C83.7533355,20.4466672 84.136665,20.5533328 84.47,20.66 C84.803335,20.7666672 85.1266651,20.886666 85.44,21.02 C85.7533349,21.153334 86.0899982,21.3399988 86.45,21.58 C87.1700036,22.0600024 87.53,22.8066616 87.53,23.82 C87.53,24.8333384 87.163337,25.6433303 86.43,26.25 L86.43,26.25 Z M95.12,25.16 C96.0933382,25.16 96.8966635,24.8366699 97.53,24.19 C98.1633365,23.5433301 98.48,22.7066718 98.48,21.68 C98.48,20.6533282 98.1633365,19.8166699 97.53,19.17 C96.8966635,18.5233301 96.0933382,18.2 95.12,18.2 C94.1466618,18.2 93.3433365,18.5233301 92.71,19.17 C92.0766635,19.8166699 91.76,20.6533282 91.76,21.68 C91.76,22.7066718 92.0766635,23.5433301 92.71,24.19 C93.3433365,24.8366699 94.1466618,25.16 95.12,25.16 L95.12,25.16 Z M95.12,27.16 C93.519992,27.16 92.186672,26.6300053 91.12,25.57 C90.053328,24.5099947 89.52,23.213341 89.52,21.68 C89.52,20.146659 90.053328,18.8500053 91.12,17.79 C92.186672,16.7299947 93.519992,16.2 95.12,16.2 C96.720008,16.2 98.053328,16.7299947 99.12,17.79 C100.186672,18.8500053 100.72,20.146659 100.72,21.68 C100.72,23.213341 100.186672,24.5099947 99.12,25.57 C98.053328,26.6300053 96.720008,27.16 95.12,27.16 L95.12,27.16 Z M108.99,18.46 C107.883328,18.46 107.050003,18.8199964 106.49,19.54 C105.929997,20.2600036 105.65,21.2266606 105.65,22.44 L105.65,27 L103.41,27 L103.41,16.36 L105.65,16.36 L105.65,18.5 C106.010002,17.83333 106.499997,17.2866688 107.12,16.86 C107.740003,16.4333312 108.396663,16.2133334 109.09,16.2 L109.11,18.46 C109.07,18.46 109.03,18.46 108.99,18.46 L108.99,18.46 Z M114.18,15.22 L114.18,19.06 L120.38,19.06 L120.38,21.24 L114.18,21.24 L114.18,27 L111.82,27 L111.82,13.02 L121.14,13.02 L121.12,15.22 L114.18,15.22 Z M128.33,25.16 C129.303338,25.16 130.106664,24.8366699 130.74,24.19 C131.373337,23.5433301 131.69,22.7066718 131.69,21.68 C131.69,20.6533282 131.373337,19.8166699 130.74,19.17 C130.106664,18.5233301 129.303338,18.2 128.33,18.2 C127.356662,18.2 126.553337,18.5233301 125.92,19.17 C125.286664,19.8166699 124.97,20.6533282 124.97,21.68 C124.97,22.7066718 125.286664,23.5433301 125.92,24.19 C126.553337,24.8366699 127.356662,25.16 128.33,25.16 L128.33,25.16 Z M128.33,27.16 C126.729992,27.16 125.396672,26.6300053 124.33,25.57 C123.263328,24.5099947 122.73,23.213341 122.73,21.68 C122.73,20.146659 123.263328,18.8500053 124.33,17.79 C125.396672,16.7299947 126.729992,16.2 128.33,16.2 C129.930008,16.2 131.263328,16.7299947 132.33,17.79 C133.396672,18.8500053 133.93,20.146659 133.93,21.68 C133.93,23.213341 133.396672,24.5099947 132.33,25.57 C131.263328,26.6300053 129.930008,27.16 128.33,27.16 L128.33,27.16 Z M141.34,27.16 C139.859993,27.16 138.586672,26.6566717 137.52,25.65 C136.453328,24.6433283 135.92,23.3266748 135.92,21.7 C135.92,20.0733252 136.476661,18.7500051 137.59,17.73 C138.703339,16.7099949 140.059992,16.2 141.66,16.2 C143.260008,16.2 144.613328,16.7533278 145.72,17.86 L144.4,19.48 C143.479995,18.679996 142.553338,18.28 141.62,18.28 C140.686662,18.28 139.87667,18.5899969 139.19,19.21 C138.50333,19.8300031 138.16,20.6299951 138.16,21.61 C138.16,22.5900049 138.499997,23.4199966 139.18,24.1 C139.860003,24.7800034 140.696662,25.12 141.69,25.12 C142.683338,25.12 143.619996,24.6666712 144.5,23.76 L145.82,25.2 C144.52666,26.5066732 143.033342,27.16 141.34,27.16 L141.34,27.16 Z M155.73,22.12 L155.73,16.36 L157.97,16.36 L157.97,27 L155.73,27 L155.73,25.06 C155.369998,25.7133366 154.873337,26.2266648 154.24,26.6 C153.606664,26.9733352 152.923337,27.16 152.19,27.16 C150.989994,27.16 150.020004,26.793337 149.28,26.06 C148.539996,25.326663 148.17,24.2666736 148.17,22.88 L148.17,16.36 L150.41,16.36 L150.41,22.2 C150.41,24.1600098 151.223325,25.14 152.85,25.14 C153.623337,25.14 154.296664,24.8833359 154.87,24.37 C155.443336,23.8566641 155.73,23.1066716 155.73,22.12 L155.73,22.12 Z M167.84,26.25 C167.106663,26.8566697 166.166672,27.16 165.02,27.16 C164.246663,27.16 163.443338,27.0200014 162.61,26.74 C161.776663,26.4599986 161.040003,26.0666692 160.4,25.56 L161.48,23.82 C162.720006,24.753338 163.919994,25.22 165.08,25.22 C165.586669,25.22 165.986665,25.1033345 166.28,24.87 C166.573335,24.6366655 166.72,24.3400018 166.72,23.98 C166.72,23.446664 166.01334,22.9666688 164.6,22.54 C164.493333,22.4999998 164.413334,22.4733334 164.36,22.46 C162.146656,21.859997 161.04,20.860007 161.04,19.46 C161.04,18.4733284 161.42333,17.6833363 162.19,17.09 C162.956671,16.4966637 163.953327,16.2 165.18,16.2 C166.406673,16.2 167.566661,16.5599964 168.66,17.28 L167.82,18.94 C166.953329,18.3666638 166.013338,18.08 165,18.08 C164.466664,18.08 164.033335,18.1766657 163.7,18.37 C163.366665,18.5633343 163.2,18.8533314 163.2,19.24 C163.2,19.5866684 163.373332,19.8399992 163.72,20 C163.960001,20.1200006 164.296665,20.2333328 164.73,20.34 C165.163336,20.4466672 165.546665,20.5533328 165.88,20.66 C166.213335,20.7666672 166.536665,20.886666 166.85,21.02 C167.163335,21.153334 167.499998,21.3399988 167.86,21.58 C168.580004,22.0600024 168.94,22.8066616 168.94,23.82 C168.94,24.8333384 168.573337,25.6433303 167.84,26.25 L167.84,26.25 Z" id="Title" fill-opacity="0.54" fill="#000000"></path>
            <circle id="Circle" fill="#F44336" cx="20" cy="20" r="2"></circle>
        </g>
    </g>
</svg>

<?xml version="1.0" encoding="UTF-8" standalone="no"?>
<svg xmlns="http://www.w3.org/2000/svg" height="40px" width="192px" version="1.1" xmlns:xlink="http://www.w3.org/1999/xlink" viewBox="0 0 192 40"><!-- Generator: Sketch 39.1 (31720) - http://www.bohemiancoding.com/sketch -->
 <title>Logo</title>
 <desc>Created with Sketch.</desc>
 <defs>
  <path id="path-1" d="m8 20c0 6.627 5.373 12 12 12s12-5.373 12-12-5.373-12-12-12"/>
  <mask id="mask-2" maskContentUnits="userSpaceOnUse" height="24" width="24" y="0" x="0" maskUnits="objectBoundingBox" fill="white">
   <use xlink:href="#path-1"/>
  </mask>
  <path id="path-3" d="m27 20c0-3.866-3.134-7-7-7s-7 3.134-7 7 3.134 7 7 7"/>
  <mask id="mask-4" maskContentUnits="userSpaceOnUse" height="14" width="14" y="0" x="0" maskUnits="objectBoundingBox" fill="white">
   <use xlink:href="#path-3"/>
  </mask>
 </defs>
 <g id="Elements" fill-rule="evenodd" fill="none">
  <g id="Logo">
   <use id="Outer" xlink:href="#path-1" stroke="#2196F3" stroke-width="4" mask="url(#mask-2)"/>
   <use id="Inner" xlink:href="#path-3" stroke="#2196F3" stroke-width="4" mask="url(#mask-4)"/>
   <path id="Title" fill-opacity=".54" fill="#000" d="m44.48 15.28c-0.44 0.28-0.66 0.703-0.66 1.27s0.22 1 0.66 1.3 1.377 0.623 2.81 0.97 2.513 0.833 3.24 1.46 1.09 1.55 1.09 2.77-0.46 2.21-1.38 2.97-2.127 1.14-3.62 1.14c-2.187 0-4.127-0.753-5.82-2.26l1.48-1.78c1.413 1.227 2.88 1.84 4.4 1.84 0.76 0 1.363-0.163 1.81-0.49s0.67-0.76 0.67-1.3-0.21-0.96-0.63-1.26-1.143-0.573-2.17-0.82-1.807-0.473-2.34-0.68-1.007-0.477-1.42-0.81c-0.827-0.627-1.24-1.587-1.24-2.88s0.47-2.29 1.41-2.99 2.103-1.05 3.49-1.05c0.893 0 1.78 0.147 2.66 0.44s1.64 0.707 2.28 1.24l-1.26 1.78c-0.413-0.373-0.973-0.68-1.68-0.92s-1.403-0.36-2.09-0.36-1.25 0.14-1.69 0.42zm19.79 7.38h-8.34c0.053 0.773 0.407 1.397 1.06 1.87s1.4 0.71 2.24 0.71c1.333 0 2.347-0.42 3.04-1.26l1.28 1.4c-1.147 1.187-2.64 1.78-4.48 1.78-1.493 0-2.763-0.497-3.81-1.49s-1.57-2.327-1.57-4 0.533-3.003 1.6-3.99 2.323-1.48 3.77-1.48 2.677 0.437 3.69 1.31 1.52 2.077 1.52 3.61v1.54zm-8.34-1.76h6.1c0-0.893-0.28-1.58-0.84-2.06s-1.25-0.72-2.07-0.72-1.557 0.25-2.21 0.75-0.98 1.177-0.98 2.03zm13.19 0.34v5.76h-2.24v-10.64h2.24v1.94c0.36-0.653 0.857-1.167 1.49-1.54s1.317-0.56 2.05-0.56c1.2 0 2.17 0.367 2.91 1.1s1.11 1.793 1.11 3.18v6.52h-2.24v-5.84c0-1.96-0.813-2.94-2.44-2.94-0.773 0-1.447 0.257-2.02 0.77s-0.86 1.263-0.86 2.25zm17.31 5.01c-0.733 0.607-1.673 0.91-2.82 0.91-0.773 0-1.577-0.14-2.41-0.42s-1.57-0.673-2.21-1.18l1.08-1.74c1.24 0.933 2.44 1.4 3.6 1.4 0.507 0 0.907-0.117 1.2-0.35s0.44-0.53 0.44-0.89c0-0.533-0.707-1.013-2.12-1.44-0.107-0.04-0.187-0.067-0.24-0.08-2.213-0.6-3.32-1.6-3.32-3 0-0.987 0.383-1.777 1.15-2.37s1.763-0.89 2.99-0.89 2.387 0.36 3.48 1.08l-0.84 1.66c-0.867-0.573-1.807-0.86-2.82-0.86-0.533 0-0.967 0.097-1.3 0.29s-0.5 0.483-0.5 0.87c0 0.347 0.173 0.6 0.52 0.76 0.24 0.12 0.577 0.233 1.01 0.34s0.817 0.213 1.15 0.32 0.657 0.227 0.97 0.36 0.65 0.32 1.01 0.56c0.72 0.48 1.08 1.227 1.08 2.24s-0.367 1.823-1.1 2.43zm8.69-1.09c0.973 0 1.777-0.323 2.41-0.97s0.95-1.483 0.95-2.51-0.317-1.863-0.95-2.51-1.437-0.97-2.41-0.97-1.777 0.323-2.41 0.97-0.95 1.483-0.95 2.51 0.317 1.863 0.95 2.51 1.437 0.97 2.41 0.97zm0 2c-1.6 0-2.933-0.53-4-1.59s-1.6-2.357-1.6-3.89 0.533-2.83 1.6-3.89 2.4-1.59 4-1.59 2.933 0.53 4 1.59c1.07 1.06 1.6 2.357 1.6 3.89s-0.53 2.83-1.6 3.89c-1.067 1.06-2.4 1.59-4 1.59zm13.87-8.7c-1.11 0-1.94 0.36-2.5 1.08s-0.84 1.687-0.84 2.9v4.56h-2.24v-10.64h2.24v2.14c0.36-0.667 0.85-1.213 1.47-1.64s1.28-0.647 1.97-0.66l0.02 2.26h-0.12zm5.19-3.24v3.84h6.2v2.18h-6.2v5.76h-2.36v-13.98h9.32l-0.02 2.2h-6.94zm14.15 9.94c0.97 0 1.78-0.323 2.41-0.97s0.95-1.483 0.95-2.51-0.32-1.863-0.95-2.51-1.44-0.97-2.41-0.97-1.78 0.323-2.41 0.97-0.95 1.483-0.95 2.51 0.32 1.863 0.95 2.51 1.44 0.97 2.41 0.97zm0 2c-1.6 0-2.93-0.53-4-1.59s-1.6-2.357-1.6-3.89 0.53-2.83 1.6-3.89 2.4-1.59 4-1.59 2.93 0.53 4 1.59 1.6 2.357 1.6 3.89-0.53 2.83-1.6 3.89-2.4 1.59-4 1.59zm13.01 0c-1.48 0-2.75-0.503-3.82-1.51s-1.6-2.323-1.6-3.95 0.56-2.95 1.67-3.97 2.47-1.53 4.07-1.53 2.95 0.553 4.06 1.66l-1.32 1.62c-0.92-0.8-1.85-1.2-2.78-1.2s-1.74 0.31-2.43 0.93-1.03 1.42-1.03 2.4 0.34 1.81 1.02 2.49 1.52 1.02 2.51 1.02 1.93-0.453 2.81-1.36l1.32 1.44c-1.29 1.307-2.79 1.96-4.48 1.96zm14.39-5.04v-5.76h2.24v10.64h-2.24v-1.94c-0.36 0.653-0.86 1.167-1.49 1.54s-1.32 0.56-2.05 0.56c-1.2 0-2.17-0.367-2.91-1.1s-1.11-1.793-1.11-3.18v-6.52h2.24v5.84c0 1.96 0.81 2.94 2.44 2.94 0.77 0 1.45-0.257 2.02-0.77s0.86-1.263 0.86-2.25zm12.11 4.13c-0.73 0.607-1.67 0.91-2.82 0.91-0.77 0-1.58-0.14-2.41-0.42s-1.57-0.673-2.21-1.18l1.08-1.74c1.24 0.933 2.44 1.4 3.6 1.4 0.51 0 0.91-0.117 1.2-0.35s0.44-0.53 0.44-0.89c0-0.533-0.71-1.013-2.12-1.44-0.11-0.04-0.19-0.067-0.24-0.08-2.21-0.6-3.32-1.6-3.32-3 0-0.987 0.38-1.777 1.15-2.37s1.76-0.89 2.99-0.89 2.39 0.36 3.48 1.08l-0.84 1.66c-0.87-0.573-1.81-0.86-2.82-0.86-0.53 0-0.97 0.097-1.3 0.29s-0.5 0.483-0.5 0.87c0 0.347 0.17 0.6 0.52 0.76 0.24 0.12 0.58 0.233 1.01 0.34s0.82 0.213 1.15 0.32 0.66 0.227 0.97 0.36 0.65 0.32 1.01 0.56c0.72 0.48 1.08 1.227 1.08 2.24s-0.37 1.823-1.1 2.43z"/>
   <circle id="Circle" cy="20" cx="20" r="2" fill="#F44336"/>
  </g>
 </g>
</svg>
